src/Icon/svgs/alert.svg

<svg width="24" height="24" viewBox="0 0 24 24" fill="none" xmlns="http://www.w3.org/2000/svg">
<path fill-rule="evenodd" clip-rule="evenodd" d="M21.8716 19.5097C22.2465 20.1763 21.7648 21 21 21H2.99999C2.23516 21 1.75345 20.1763 2.12842 19.5097L11.1284 3.50974C11.5107 2.83009 12.4893 2.83009 12.8716 3.50974L21.8716 19.5097ZM13 15V9H11V15H13ZM13 18V16H11V18H13Z" fill="#1B1C1D"/>
</svg>

<svg xmlns="http://www.w3.org/2000/svg" width="24" height="24" fill="none"><path fill-rule="evenodd" d="M21.872 19.51A1 1 0 0 1 21 21H3a1 1 0 0 1-.872-1.49l9-16a1 1 0 0 1 1.743 0l9 16zM13 15V9h-2v6h2zm0 3v-2h-2v2h2z" fill="#1B1C1D"/></svg>
